Numix-GalliumOS/48/actions/image-auto-adjust.svg

<?xml version="1.0" encoding="UTF-8" standalone="no"?>
<svg
   xmlns:dc="http://purl.org/dc/elements/1.1/"
   xmlns:cc="http://creativecommons.org/ns#"
   xmlns:rdf="http://www.w3.org/1999/02/22-rdf-syntax-ns#"
   xmlns:svg="http://www.w3.org/2000/svg"
   xmlns="http://www.w3.org/2000/svg"
   xmlns:sodipodi="http://sodipodi.sourceforge.net/DTD/sodipodi-0.dtd"
   xmlns:inkscape="http://www.inkscape.org/namespaces/inkscape"
   width="48"
   height="48"
   viewBox="0 0 48 48"
   id="svg2"
   version="1.1"
   inkscape:version="0.91 r13725"
   sodipodi:docname="image-auto-adjust.svg">
  <metadata
     id="metadata18">
    <rdf:RDF>
      <cc:Work
         rdf:about="">
        <dc:format>image/svg+xml</dc:format>
        <dc:type
           rdf:resource="http://purl.org/dc/dcmitype/StillImage" />
        <dc:title></dc:title>
      </cc:Work>
    </rdf:RDF>
  </metadata>
  <defs
     id="defs16" />
  <sodipodi:namedview
     pagecolor="#ffffff"
     bordercolor="#666666"
     borderopacity="1"
     objecttolerance="10"
     gridtolerance="10"
     guidetolerance="10"
     inkscape:pageopacity="0"
     inkscape:pageshadow="2"
     inkscape:window-width="1366"
     inkscape:window-height="704"
     id="namedview14"
     showgrid="false"
     inkscape:zoom="1"
     inkscape:cx="26.010456"
     inkscape:cy="42.009497"
     inkscape:window-x="0"
     inkscape:window-y="27"
     inkscape:window-maximized="1"
     inkscape:current-layer="svg2"
     inkscape:object-nodes="true">
    <inkscape:grid
       type="xygrid"
       id="grid2995" />
  </sodipodi:namedview>
  <path
     inkscape:connector-curvature="0"
     id="path4157"
     style="fill:#e2b854;fill-opacity:1;fill-rule:nonzero;stroke:none"
     d="M 12.509196,22 10.113636,30.113636 2,32.508982 10.113636,34.886364 12.509196,43 14.886364,34.886364 23,32.508982 14.886364,30.113636"
     sodipodi:nodetypes="cccccccc" />
  <path
     inkscape:connector-curvature="0"
     id="path4159"
     style="fill:#e2b854;fill-opacity:1;fill-rule:nonzero;stroke:none"
     d="M 37.499998,11 35.611111,17.611111 29,19.505185 35.611111,21.388889 37.499998,28 39.388889,21.388889 46,19.505185 39.388889,17.611111"
     sodipodi:nodetypes="cccccccc" />
  <path
     inkscape:connector-curvature="0"
     id="path4161"
     style="fill:#e2b854;fill-opacity:1;fill-rule:nonzero;stroke:none"
     d="M 29.499997,2.0000008 28,7 23,8.4944431 28,10 29.499997,15 31,10 36,8.4944431 31,7"
     sodipodi:nodetypes="cccccccc" />
  <g
     id="g4171"
     transform="matrix(1.2363013,1.7348283,-1.7656211,1.2147399,60.093733,8.2584703)">
    <path
       style="opacity:1;fill:#5c6982;fill-opacity:1;stroke:none;stroke-width:0.5;stroke-linecap:round;stroke-linejoin:round;stroke-miterlimit:4;stroke-dasharray:none;stroke-opacity:1"
       d="m -7.9003906,16.000781 c -0.73015,-10e-4 -2.1015834,0.447585 -2.1006094,1.59961 C -10,18.783666 -8.6305406,19.2 -7.9003906,19.2 l 14.8005866,0 c 0.8864,0 1.599609,-0.713209 1.599609,-1.599609 0,-0.8864 -0.713209,-1.59961 -1.599609,-1.59961 z"
       id="rect4138"
       inkscape:connector-curvature="0"
       sodipodi:nodetypes="csssssc" />
    <path
       style="opacity:1;fill:#c59da1;fill-opacity:1;stroke:none;stroke-width:0.5;stroke-linecap:round;stroke-linejoin:round;stroke-miterlimit:4;stroke-dasharray:none;stroke-opacity:1"
       d="M -13.400391,16.000781 C -14.286791,16.000746 -15,16.713991 -15,17.600391 c 0,0.8864 0.713209,1.599641 1.599609,1.599609 l 5.5000004,-1.95e-4 C -8.4586656,19.199805 -9,18.462794 -9,17.600196 -9,16.737598 -8.4430406,16 -7.9003906,16.001 Z"
       id="rect4140"
       inkscape:connector-curvature="0"
       sodipodi:nodetypes="sssczcs" />
  </g>
</svg>

<svg xmlns="http://www.w3.org/2000/svg" viewBox="0 0 48 48">
 <path d="m 12.509 22 -2.396 8.114 -8.114 2.395 8.114 2.377 2.396 8.114 2.377 -8.114 8.114 -2.377 -8.114 -2.395" style="fill:#e2b854;fill-opacity:1;stroke:none;fill-rule:nonzero"/>
 <path d="m 37.5 11 -1.889 6.611 -6.611 1.894 6.611 1.884 1.889 6.611 1.889 -6.611 6.611 -1.884 -6.611 -1.894" style="fill:#e2b854;fill-opacity:1;stroke:none;fill-rule:nonzero"/>
 <path d="m 29.5 2 -1.5 5 -5 1.494 5 1.506 1.5 5 1.5 -5 5 -1.506 -5 -1.494" style="fill:#e2b854;fill-opacity:1;stroke:none;fill-rule:nonzero"/>
 <g transform="matrix(1.2363013,1.7348283,-1.7656211,1.2147399,60.093733,8.2584703)">
  <path d="m -7.9 16 c -0.73 -0.001 -2.102 0.448 -2.101 1.6 c 0.001 1.183 1.37 1.6 2.101 1.6 l 14.801 0 c 0.886 0 1.6 -0.713 1.6 -1.6 0 -0.886 -0.713 -1.6 -1.6 -1.6 z" style="fill:#5c6982;opacity:1;fill-opacity:1;stroke:none"/>
  <path d="m -13.4 16 c -0.886 0 -1.6 0.713 -1.6 1.6 c 0 0.886 0.713 1.6 1.6 1.6 l 5.5 0 c -0.558 0 -1.1 -0.737 -1.1 -1.6 0 -0.863 0.557 -1.6 1.1 -1.599" style="fill:#c59da1;opacity:1;fill-opacity:1;stroke:none"/>
 </g>
</svg>
